X:0812
T:A Highland Reel.
S:Aird v5 p5
M:C|
L:1/8
Q:1/2=100
I: :: :: :|
Z:Jack Campin * www.campin.me.uk * 2009
K:D
  defe     dcBA  |  GFdF      E2  E2 |\
  defe     dcBA  |  BdAF      D2  D2:|
(3DED AF (3DED AF|(3EFE BG  (3EFE BG |\
(3DED AF (3DED AF|  BdAF      D2  D2:|
  a>ba>f   a>ba>f| (ge)(be)  (ge)(be)|\
  a>ba>f   a>ba>f| (ge)(af)   d2  d2:|
<end>
<start>
